X:1
T:Arthur Willis Spooner
T:A. W. S.
T:I Would Not Live Without Him
%%score { ( 1 2 ) | ( 3 4 ) }
L:1/8
Q:1/4=112
M:4/4
K:F
V:1 treble 
V:2 treble 
V:3 bass 
V:4 bass 
V:1
"^Moderato" C>F | A>AAA c2 F>E | DGF>E C2 A>A | A<ccd c<AGA | G6 F>A | A>AAA c2 F>E | %6
w: ||||||
w: If you|turn this Friend a\- way, He will|fol\- low you each day; O, I|would not live with\- out Him, if I|could;\- When you|fall, this Friend is near, Call on|
w: When your|head is bowed with grief, Then this|Friend will bring re\- lief; O, I|would not live with\- out Him if I|could;\- When you|stand be\- fore the throne, He will|
 DGF>D C2 F>G | A<ccd c<A G<G | F6"^Chorus" F>F | G<GGA G<ED>C | F2 F>G A2 A>B | c<ccd c<AG>A | %12
w: ||* O, I|would not live with\- out Him if I|could, if I could, O, I|would not live with\- out Him if I|
w: Him, you need not fear; O, I|would not live with\- out Him if I|could. * *||||
w: claim you for His own; O, I|would not live with\- out Him if I|could. * *||||
 G6 F>G | A>AAA c2 F>E | DGF>D C2 F>G | A<ccd c<A G<G | F6 z2 |] %17
w: could;\- He is|lov\- ing, ten\- der, kind, Tru\- er|Friend you can\- not find; O, I|would not live with\- out Him if I|could.|
w: |||||
w: |||||
V:2
{/x} C>C | F>FFF F2 C>C | B,DD>B, C2 C>C | F<FFF F<FFF | E6 C>C | F>FFF F2 C>C | B,DD>B, A,2 C>C | %7
w: Je\- sus|is a Friend so kind, Tru\- er|Friend you can\- not find; O, I|would not live with\- out Him if I|could;\- He will|help you to the end, On His|love you may de\- pend; O, I|
 F<FFF F<F C<C | C6 C>C | C<CCC C<CB,>B, | C2 C>C F2 F>F | F<FFF F<FF>F | E6 C>C | F>FFF F2 C>C | %14
w: would not live with\- out Him if I|could. * *||||||
 B,DD>B, A,2 C>C | F<FFF F<F C<C | C6 z2 |] %17
w: |||
V:3
 A,>A, | C>CCC A,2 F,>F, | F,F,F,>F, F,2 A,>B, | C<A,A,B, A,<C=B,B, | B,6 A,>B, | C>CCC A,2 F,>F, | %6
 F,F,F,>F, F,2 A,>B, | C<A,A,B, A,<C B,<B, | A,6 A,>A, | B,<B,B,B, B,<B,E,>E, | F,2 A,>B, C2 C>G, | %11
 A,<A,A,B, A,<C=B,>B, | B,6 A,>B, | C>CCC A,2 F,>F, | F,F,F,>F, F,2 A,>B, | C<A,A,B, A,<C B,<B, | %16
 A,6 z2 |] %17
V:4
 F,>F, | F,>F,F,F, F,2 A,,>A,, | B,,B,,B,,>B,, F,2 F,>F, | F,<F,F,F, F,<F,D,D, | C,6 F,>F, | %5
 F,>F,F,F, F,2 A,,>A,, | B,,B,,B,,>B,, F,2 F,>F, | F,<F,F,F, F,<F, C,<C, | F,6 F,>F, | %9
 C,<C,C,C, C,<C,C,>C, | F,,2 F,>F, F,2 F,>F, | F,<F,F,F, F,<F,D,>D, | C,6 F,>F, | %13
 F,>F,F,F, F,2 A,,>A,, | B,,B,,B,,>B,, F,2 F,>F, | F,<F,F,F, F,<F, D,<D, | F,6 z2 |] %17

